X:1
T:O Sol ch'in Oriente
T:Antonio Cifra
T:Source : Le diversi Scherzi a uno, a due et tre voci---Libro secondo---Roma---G.B.Robletti---1613. Editor : André Vierendeels (11/11/16).
T:Notes : Original clefs, C1, C1, F4, F4 Editorial accidentals above the staff
T:Romano
T:O Sol ch'in Oriente
T:Canzonetta
T:©
T:©
T:©
Z:©
%%score [ 1 2 3 ] { 4 | 5 }
L:1/8
Q:1/4=98
M:4/4
K:C
V:1 treble nm="Soprano 1" snm="S 1"
V:2 treble nm="Soprano 2" snm="S 2"
V:3 bass nm="Bass" snm="B"
V:4 treble nm="MusicXML Part"
V:5 bass 
V:1
 z2 B2 d4- | d2 d2 d2 d2 | e4 e4 | z8 | G2 AB cdef | g3 c d4 | c8 :: B8- | B4 AAAG | A4 A4 | %10
w: O Sol|_ ch'in O- ri-|en- te||spie- gh'il tuo rag- * * *|* gio'ar- den-|te,|deh'|_ sor- gi'ho- mai deh|sor- gi|
 z AAB c3 e | d2 d2 z ddd | d2 e2 f4 | eedc BAGF | E2 ^F2 G3 A | B3 c A4 | B8 :| %17
w: e lie- to'al mon- dopor-|gi _ il de- si-|a- to gior-|no di mil- le rag- gi'e mil- le|li- ci'a- dor- *||no.|
V:2
 z2 G2 B4- | B2 B2 A2 B2 | c4 G4 | E2 FG ABcd | e6 c2 | B2 c4 B2 | c8 :: z4 D4- | D4 ^FFFG | %9
w: O Sol|_ ch'in O- ri-|en- te|spi- gh'il tuo rag- * * *|* gio'ar-|den- * *|te,|deh'|_ sor- gi'ho- mai deh|
 ^F4 FFFG | A6 c2 | B2 BB BB B2- | BG c4 B2 | c2 z2 z4 |"^-natural" z edc BAGF |"^#" EF G4 ^F2 | %16
w: sor- gi e lie- to|mon- do,|por- gi, il de- si- a-|* to gior- *|no|di mil- le rag- gi'e mil- le|lu- ci'a- dor- *|
 G8 :| %17
w: no.|
V:3
 z2 G,,2 G,4- | G,2 G,2 ^F,2 G,2 | C,4 C,4 | C,2 D,E, F,G,A,B, | C4 A,4 | G,8 | C,8 :: z4 G,,4- | %8
w: O Sol|_ ch'in O- ri-|en- te|spi- gh'il tuo rag- * * *|* gio'ar-|den-|te,|deh|
 G,,4 D,D,D,B,, | D,4 D,D,D,E, | F,6 E,2 | G,2 G,G, G,G, G,2- | G,2 E,2 D,4 | C,CB,A, G,F,E,D, | %14
w: _ sor- gi'ho- mai deh|sor- gi e lie- to|mon- do,|por- gi, il de- si- a|_ to gior-|no, gi mil- le rag- g'e mil- le|
 C,C,/C,/ B,,A,, E,4- | E,2 E,2 D,4 | G,,8 :| %17
w: lu- ci, emil- * le lu-|* ci'a- dor-|no.|
V:4
 z8 | z8 | z8 | z8 | z8 | z8 | z8 :: z8 | z8 | z8 | z8 | z8 | z8 | z8 | z8 | z8 | E8 :| %17
V:5
"^BC" G,8- | G,4 ^F,2 G,2 | C,8 | C,2 D,E, F,2 A,2 | C4 A,4 | G,8 | C,8 :: G,,8- | G,,4 D,3 B,, | %9
 D,6 D,2 | F,6 E,2 | G,8 | G,2 E,2 D,4 | C,CB,A, G,F,E,D, | C,2 B,,A,, E,4- | E,4 D,4 | G,,8 :| %17

